packages/icons/src/__generated__/nav/svg/nav-assetHubProduct-16-active.svg

<svg xmlns="http://www.w3.org/2000/svg" fill="#1652F0" viewBox="0 0 16 16"><path d="M7.989 4.532c0 1.99-1.604 3.463-3.5 3.463 1.896 0 3.5 1.474 3.5 3.463 0-1.99 1.604-3.463 3.5-3.463-1.896 0-3.5-1.474-3.5-3.463Z"/><path d="M7.989 4.495v-.037c0-1.99-1.604-3.463-3.5-3.463s-3.5 1.547-3.5 3.537 1.531 3.463 3.5 3.463c-1.896 0-3.5 1.604-3.5 3.5a3.5 3.5 0 0 0 7 0 3.5 3.5 0 0 0 7 0c0-1.969-1.532-3.5-3.5-3.5 1.896 0 3.5-1.547 3.5-3.537S13.385.995 11.489.995c-1.884 0-3.48 1.528-3.5 3.5Zm0 0h3.5v7h-7v-7h3.5Z"/></svg>

<svg xmlns="http://www.w3.org/2000/svg" fill="#1652F0" viewBox="0 0 16 16"><path d="M8 4.537C8 6.527 6.396 8 4.5 8 6.396 8 8 9.474 8 11.463 8 9.473 9.604 8 11.5 8 9.604 8 8 6.526 8 4.537Z"/><path d="M8 4.5v-.037C8 2.473 6.396 1 4.5 1S1 2.547 1 4.537 2.531 8 4.5 8C2.604 8 1 9.604 1 11.5a3.5 3.5 0 0 0 7 0 3.5 3.5 0 0 0 7 0C15 9.531 13.469 8 11.5 8 13.396 8 15 6.453 15 4.463S13.396 1 11.5 1C9.616 1 8.02 2.528 8 4.5Zm0 0h3.5v7h-7v-7H8Z"/></svg>
